public/assets/img/com/logo-andamiro.svg

<svg width="81" height="28" viewBox="0 0 81 28" fill="none" xmlns="http://www.w3.org/2000/svg">
<path d="M3.95052 15.0498C4.78349 15.0537 5.61651 15.0527 6.44948 15.0479C6.47612 16.3335 6.36541 17.788 6.50462 19.0688C6.57259 19.6935 7.25869 20.4024 7.9299 20.422C9.13986 20.4567 10.3798 20.443 11.6025 20.4435L18.8358 20.442L42.4627 20.445C43.1443 21.1823 43.6357 21.7948 44.4032 22.4699C48.4888 26.0639 54.3085 26.5417 58.7912 23.3565C60.0862 22.4366 60.8294 21.6675 61.8692 20.4455C65.0657 20.398 68.3759 20.443 71.5812 20.4435C71.5988 19.1877 71.5885 17.9055 71.5915 16.6478C72.4278 16.638 73.2641 16.638 74.1 16.6483L74.1019 20.4411L79.6557 20.4416L80.9946 20.4469L81 22.9453C76.8081 22.9923 72.5878 22.9242 68.3944 22.9536C66.6257 22.9663 64.8022 22.9218 63.0383 22.9688C62.7138 23.3046 62.3947 23.6361 62.0522 23.9543C55.7689 29.7974 47.0674 29.1766 41.3233 22.96C38.5644 22.9276 35.7472 22.9546 32.9831 22.9546L16.9776 22.9556L10.6725 22.9536C9.92984 22.9546 8.00773 23.003 7.37087 22.9027C6.53516 22.7661 5.76426 22.3666 5.16946 21.762C3.8765 20.4528 3.94023 19.2083 3.94316 17.5374L3.95052 15.0498Z" fill="#151515"/>
<path fill-rule="evenodd" clip-rule="evenodd" d="M51.3483 0.321267C52.9442 0.339576 54.796 0.0314966 56.1051 1.08689C56.7902 1.63868 57.2268 2.44286 57.3171 3.31931C57.3771 3.94222 57.3493 4.96874 57.3493 5.624L57.3503 12.7656C57.3498 13.9975 57.4507 15.0588 56.5885 16.0742C55.8888 16.8986 55.1298 17.1911 54.0749 17.291C52.8712 17.3394 51.5124 17.2836 50.2897 17.3027C49.3085 17.3174 48.0648 17.345 47.1051 17.2246C46.5514 17.1262 46.0306 16.9086 45.5944 16.5635C44.1122 15.388 44.2995 13.7813 44.2985 12.0683L44.2995 5.41013C44.3 4.68972 44.2542 3.87407 44.3825 3.16795C44.6894 1.47476 45.9381 0.494313 47.6032 0.337869C48.7752 0.266541 50.1636 0.307703 51.3483 0.321267ZM54.1442 2.8701C52.3277 2.77659 50.4417 2.89046 48.6188 2.84666C48.2607 2.83804 47.8842 2.8462 47.526 2.8701C47.3278 2.98548 46.923 3.24748 46.9118 3.50681C46.7649 6.89703 46.8786 10.3271 46.86 13.7256C46.8576 14.1549 47.1743 14.7358 47.6217 14.7607C49.4491 14.8625 51.3022 14.7743 53.1344 14.7988C53.4598 14.8032 53.8169 14.8052 54.1383 14.7656C54.8683 14.3612 54.8053 14.0699 54.8073 13.291C54.8102 12.1354 54.8078 10.9789 54.8073 9.82322L54.8053 5.874C54.8058 5.1857 54.8136 4.4977 54.8024 3.80955C54.7945 3.33462 54.5315 3.08968 54.1442 2.8701Z" fill="#151515"/>
<path d="M36.7921 0.0131322C37.5857 -0.0132072 38.5049 0.0097551 39.3083 0.00990197C39.3549 2.17781 39.3175 4.49798 39.3185 6.6772L42.5353 6.67882C42.5411 7.51536 42.5411 8.35196 42.5343 9.18855C41.4623 9.18444 40.3898 9.18689 39.3177 9.19594L39.3117 17.9366L36.7901 17.9317L36.7832 14.1418C34.3547 15.6742 32.0849 15.2507 29.3507 15.2928C27.3645 15.3232 25.0996 15.5739 23.7448 13.807C23.3177 13.2449 23.0283 12.59 22.8999 11.8949C22.7683 11.202 22.7982 8.98518 22.812 8.15652C22.8319 6.95646 22.7286 4.84309 22.875 3.72405C23.1005 2.81583 23.3478 2.19084 24.0093 1.50944C25.4169 0.0597427 27.4285 0.318534 29.2637 0.319807L34.1046 0.324998L34.1044 2.8453C31.8117 2.87909 29.5097 2.82357 27.2172 2.84129C25.9129 2.85138 25.3351 3.58124 25.3286 4.83849C25.3202 6.45929 25.3491 8.08235 25.3283 9.70315C25.2884 11.2995 25.2669 12.7996 27.3445 12.767C28.5759 12.762 29.8413 12.7788 31.0691 12.7653C32.8755 12.7455 34.6069 13.004 36.0234 11.616C37.0068 10.6523 36.7501 9.45205 36.7899 8.20048C36.8049 7.72814 36.7895 7.2527 36.7892 6.78461L36.7921 0.0131322Z" fill="#151515"/>
<path fill-rule="evenodd" clip-rule="evenodd" d="M6.03376 0.0234866C9.66416 -0.282035 12.8515 2.4289 13.1461 6.07231C13.4405 9.71572 10.7302 12.906 7.09822 13.1915C3.48042 13.4759 0.315618 10.7697 0.0220459 7.14067C-0.271306 3.51142 2.41751 0.327908 6.03376 0.0234866ZM10.5777 6.04302C10.2708 3.83067 8.2348 2.28671 6.02986 2.59478C3.8253 2.90285 2.28671 4.94534 2.59333 7.15728C2.9002 9.36944 4.93641 10.9132 7.14119 10.6055C9.34604 10.2977 10.8844 8.25528 10.5777 6.04302Z" fill="#151515"/>
<path d="M65.8576 0.324759C68.9126 0.287208 71.9779 0.341257 75.0339 0.317366C75.373 0.314722 75.6951 0.315163 76.0317 0.343363C80.1451 0.687881 81.3328 6.15816 77.945 8.36788C76.7183 9.16648 75.5965 9.04967 74.2034 9.04565L71.2065 9.03684C69.8753 9.03327 67.9611 8.87557 67.866 10.7718C67.8377 11.2871 68.0216 11.7914 68.3749 12.1664C68.5882 12.3879 68.9683 12.6238 69.2664 12.6421C70.3062 12.7059 71.5002 12.6798 72.54 12.6795L80.0319 12.6806C80.049 13.5082 80.0363 14.3767 80.0368 15.2071C76.526 15.2521 72.9704 15.2007 69.4572 15.2051C67.1004 15.208 65.153 13.0554 65.2979 10.6598C65.3506 9.81008 65.6371 8.9916 66.1245 8.29498C67.4083 6.49523 69.081 6.5252 71.0103 6.53073L74.0229 6.54233C74.6655 6.54458 75.2544 6.57367 75.8839 6.48265C77.824 6.20247 77.7659 3.09994 75.9454 2.88164C75.0793 2.77775 73.6618 2.84894 72.7552 2.84903L65.8479 2.84615C65.8259 2.0283 65.8415 1.14329 65.8576 0.324759Z" fill="#151515"/>
<path d="M15.332 0.0107422L17.8464 0.0151975L17.84 6.67701L21.0478 6.67584C21.0584 7.51527 21.0593 8.35486 21.0502 9.19434C19.9775 9.18102 18.9047 9.18264 17.8321 9.19919C17.843 10.3431 17.8472 11.4871 17.8446 12.6311L17.8467 15.8873L15.3214 15.8869L15.332 0.0107422Z" fill="#151515"/>
<path d="M60.015 0.0155458C60.8016 -0.0133394 61.737 0.0111895 62.5353 0.0110427C62.5768 2.08304 62.5353 4.29281 62.5348 6.37691L62.5338 17.9332C61.6985 17.9243 60.8504 17.9327 60.0141 17.9332L60.015 0.0155458Z" fill="#151515"/>
</svg>

<svg xmlns="http://www.w3.org/2000/svg" width="81" height="28" fill="none" viewBox="0 0 81 28"><path fill="#151515" d="M3.95 15.05q1.25.006 2.5-.002c.026 1.286-.085 2.74.055 4.02.068.625.754 1.334 1.425 1.354 1.21.035 2.45.021 3.672.021l7.234-.001 23.627.003c.681.737 1.173 1.35 1.94 2.025 4.086 3.594 9.906 4.072 14.388.887 1.295-.92 2.038-1.69 3.078-2.911 3.197-.048 6.507-.003 9.712-.003.018-1.255.007-2.538.01-3.795q1.255-.015 2.509 0l.002 3.793h5.554l1.339.006.005 2.498c-4.192.047-8.412-.02-12.606.009-1.768.012-3.592-.032-5.356.015-.324.336-.643.667-.986.985-6.283 5.843-14.985 5.223-20.729-.994-2.759-.032-5.576-.005-8.34-.005H16.978l-6.306-.001c-.742 0-2.664.049-3.301-.051a4 4 0 0 1-2.202-1.141c-1.292-1.31-1.229-2.554-1.226-4.225z"/><path fill="#151515" fill-rule="evenodd" d="M51.348.321c1.596.019 3.448-.29 4.757.766a3.3 3.3 0 0 1 1.212 2.232c.06.623.032 1.65.032 2.305l.001 7.142c0 1.232.1 2.293-.761 3.308-.7.825-1.46 1.117-2.514 1.217-1.204.048-2.563-.007-3.785.012-.981.014-2.225.042-3.185-.078a3.4 3.4 0 0 1-1.51-.662c-1.483-1.175-1.295-2.782-1.297-4.495L44.3 5.41c0-.72-.046-1.536.083-2.242.306-1.693 1.555-2.674 3.22-2.83 1.172-.071 2.56-.03 3.745-.017m2.796 2.55c-1.816-.094-3.702.02-5.525-.024-.358-.009-.735 0-1.093.023-.198.115-.603.377-.614.637-.147 3.39-.033 6.82-.052 10.219-.002.429.314 1.01.762 1.035 1.827.102 3.68.013 5.512.038.326.004.683.006 1.004-.033.73-.405.667-.696.67-1.475q.002-1.734 0-3.468l-.003-3.949c0-.688.009-1.376-.003-2.064-.008-.475-.27-.72-.658-.94" clip-rule="evenodd"/><path fill="#151515" d="M36.792.013c.794-.026 1.713-.003 2.516-.003.047 2.168.01 4.488.01 6.667l3.217.002q.009 1.254 0 2.51a262 262 0 0 0-3.217.007l-.006 8.74-2.522-.004-.007-3.79c-2.428 1.532-4.698 1.109-7.432 1.15-1.986.031-4.251.282-5.606-1.485a4.5 4.5 0 0 1-.845-1.912c-.132-.693-.102-2.91-.088-3.738.02-1.2-.083-3.314.063-4.433.226-.908.473-1.533 1.134-2.215C25.417.06 27.43.32 29.264.32l4.84.006v2.52c-2.292.034-4.594-.021-6.887-.004-1.304.01-1.882.74-1.888 1.997-.009 1.621.02 3.244 0 4.865-.04 1.597-.062 3.097 2.015 3.064 1.232-.005 2.497.012 3.725-.002 1.807-.02 3.538.239 4.954-1.149.984-.964.727-2.164.767-3.416.015-.472 0-.947 0-1.415z"/><path fill="#151515" fill-rule="evenodd" d="M6.034.023c3.63-.305 6.818 2.406 7.112 6.05s-2.416 6.833-6.048 7.118C3.48 13.477.316 10.77.022 7.142S2.418.328 6.034.023m4.544 6.02A4.033 4.033 0 0 0 6.03 2.595a4.04 4.04 0 0 0-3.437 4.562 4.033 4.033 0 0 0 4.548 3.448 4.04 4.04 0 0 0 3.437-4.562" clip-rule="evenodd"/><path fill="#151515" d="M65.858.325c3.055-.038 6.12.016 9.176-.008.339-.002.661-.002.998.026 4.113.345 5.3 5.815 1.913 8.025-1.227.798-2.348.682-3.742.678l-2.996-.01c-1.332-.003-3.246-.16-3.341 1.736-.028.515.156 1.02.509 1.394.213.222.593.458.891.476 1.04.064 2.234.038 3.274.038h7.492c.017.828.004 1.697.005 2.527-3.511.045-7.067-.006-10.58-.002-2.357.003-4.304-2.15-4.16-4.545.054-.85.34-1.668.828-2.365 1.283-1.8 2.956-1.77 4.885-1.764l3.013.011c.642.003 1.231.032 1.86-.06 1.941-.28 1.883-3.382.062-3.6-.866-.104-2.283-.033-3.19-.033l-6.907-.003a56 56 0 0 1 .01-2.521M15.332.01l2.514.005-.006 6.662 3.208-.001q.015 1.26.002 2.518a116 116 0 0 0-3.218.005q.016 1.716.013 3.432l.002 3.256H15.32zM60.015.016c.787-.03 1.722-.005 2.52-.005.042 2.072 0 4.282 0 6.366l-.001 11.556c-.835-.009-1.684 0-2.52 0z"/></svg>
